brandFactory_export/2.Regular/Fibra_2Regular.svg

<?xml version="1.0" encoding="UTF-8"?>
<svg width="24px" height="24px" viewBox="0 0 24 24" version="1.1" xmlns="http://www.w3.org/2000/svg" xmlns:xlink="http://www.w3.org/1999/xlink">
    <title>2.Regular/Fibra_2Regular</title>
    <g id="Symbols" stroke="none" stroke-width="1" fill="none" fill-rule="evenodd">
        <g id="2.Regular/Fibra_2Regular" fill="#5CB615" fill-rule="nonzero">
            <path d="M11.8151261,-4.4408921e-13 C15.5630252,-4.4408921e-13 18.4840336,0.981512605 20.4907563,2.91428571 C22.5747899,4.9210084 23.6302521,7.91596639 23.6302521,11.8151261 C23.6302521,15.7142857 22.5747899,18.7058824 20.4907563,20.7159664 C18.4840336,22.6487395 15.5630252,23.6302521 11.8151261,23.6302521 C8.85066821,23.6302521 6.4035347,23.0161923 4.51697276,21.803043 C4.36643357,21.7642988 4.23615976,21.6739298 4.14583438,21.5523407 C3.7882961,21.2962176 3.45275589,21.0176826 3.1394958,20.7159664 C1.05546218,18.7058824 -2.00532924e-10,15.7109244 -2.00532924e-10,11.8151261 C-2.00532924e-10,7.91932773 1.05546218,4.92436975 3.1394958,2.91428571 C5.14621849,0.981512605 8.06722689,-4.4408921e-13 11.8151261,-4.4408921e-13 Z M11.8151261,1.34453782 C8.42689076,1.34453782 5.82184874,2.19831933 4.07394958,3.88235294 C2.26218487,5.62689076 1.34453781,8.29579832 1.34453781,11.8151261 C1.34453781,14.1008446 1.73161872,16.0264219 2.49933438,17.5743613 L5.94957983,14.1714286 C6.21512605,13.9092437 6.63865546,13.912605 6.90084034,14.1781513 L7.13277311,14.4134454 C7.94285714,12.8033613 8.78319328,10.4268908 9.01176471,7.27058824 C8.80672269,7.18319328 8.61848739,7.05546218 8.46386555,6.8907563 C8.13781513,6.5512605 7.97310924,6.10420168 7.97310924,5.55966387 C7.97310924,5.01512605 8.13781513,4.57142857 8.46386555,4.22857143 C8.78991597,3.88907563 9.23697479,3.70420168 9.74453781,3.70420168 C10.2521008,3.70420168 10.6957983,3.88571429 11.0252101,4.22857143 C11.3546218,4.57142857 11.5159664,5.01848739 11.5159664,5.55966387 C11.5159664,6.10084034 11.3512605,6.54789916 11.0252101,6.8907563 C10.8403361,7.08571429 10.6084034,7.23361345 10.3529412,7.31764706 C10.1714286,9.87226891 9.61344538,11.9596639 8.97142857,13.5764706 L14.8033613,7.81512605 C14.7058824,7.58991597 14.6554622,7.34789916 14.6655462,7.10252101 C14.6789916,6.63193277 14.8806723,6.20168067 15.2705882,5.81848739 C15.6605042,5.43529412 16.0907563,5.23697479 16.5613445,5.22689076 C17.0386555,5.21344538 17.4823529,5.39495798 17.8420168,5.7512605 C18.2016807,6.10756303 18.389916,6.5512605 18.3764706,7.02857143 C18.3630252,7.49915966 18.1613445,7.92941176 17.7714286,8.31260504 C17.3815126,8.69579832 16.9512605,8.8907563 16.4806723,8.90420168 C16.2319328,8.91092437 15.9831933,8.86386555 15.7546218,8.76302521 L10.0336134,14.410084 C11.6302521,13.7983193 13.6605042,13.2672269 16.1277311,13.092437 C16.2151261,12.8369748 16.3596639,12.605042 16.5546218,12.4201681 C16.8941176,12.0941176 17.3411765,11.9294118 17.8857143,11.9294118 C18.4302521,11.9294118 18.8773109,12.097479 19.2168067,12.4235294 C19.5563025,12.7495798 19.7411765,13.1966387 19.7411765,13.7042017 C19.7411765,14.2117647 19.5596639,14.6554622 19.2168067,14.9882353 C18.8739496,15.3210084 18.4302521,15.4789916 17.8857143,15.4789916 C17.3411765,15.4789916 16.897479,15.3109244 16.5546218,14.9882353 C16.3932773,14.8336134 16.2621849,14.6453782 16.1747899,14.4403361 C13.0084034,14.6689076 10.6285714,15.5159664 9.01512605,16.3294118 L9.28403361,16.6016807 C9.54621849,16.8672269 9.54285714,17.2907563 9.27731092,17.5529412 L5.80062164,20.9984227 C7.39150804,21.853795 9.40521232,22.2857143 11.8151261,22.2857143 C15.2033613,22.2857143 17.8084034,21.4319328 19.5563025,19.7478992 C21.3680672,18.0033613 22.2857143,15.3344538 22.2857143,11.8151261 C22.2857143,8.29579832 21.3680672,5.6302521 19.5563025,3.88235294 C17.8084034,2.19831933 15.2033613,1.34453782 11.8151261,1.34453782 Z M6.41680672,15.6033613 L3.21476878,18.7596709 C3.47437096,19.1162738 3.76080506,19.4457931 4.07394958,19.7478992 C4.25554949,19.9228637 4.44640175,20.0888661 4.64642341,20.2458801 L7.86554622,17.0689076 L7.14285714,16.3361345 L6.81680672,16.0067227 L6.41680672,15.6033613 Z M17.8991597,13.2773109 C17.6235294,13.2773109 17.5294118,13.3647059 17.4991597,13.394958 C17.4453782,13.4487395 17.3882353,13.5260504 17.3882353,13.7042017 L17.3882353,13.7176471 C17.3848739,13.7210084 17.3848739,13.7243697 17.3882353,13.7243697 C17.3915966,13.8957983 17.4453782,13.9697479 17.4991597,14.0201681 C17.5294118,14.0504202 17.6235294,14.1378151 17.8991597,14.1378151 C18.1747899,14.1378151 18.2689076,14.0504202 18.2991597,14.0201681 C18.3529412,13.9663866 18.410084,13.8890756 18.410084,13.707563 C18.410084,13.5260504 18.3529412,13.4487395 18.2991597,13.394958 C18.2689076,13.3647059 18.1747899,13.2773109 17.8991597,13.2773109 Z M16.6016807,6.57815126 C16.5579832,6.57815126 16.4235294,6.58151261 16.2218487,6.78319328 C16.0201681,6.98487395 16.0201681,7.10588235 16.0168067,7.14621849 C16.0134454,7.21344538 16.0268908,7.30420168 16.1478992,7.42521008 C16.2789916,7.55294118 16.3731092,7.5697479 16.4504202,7.56638655 C16.4941176,7.56638655 16.6285714,7.56302521 16.8302521,7.36134454 C17.0319328,7.15966387 17.0319328,7.03865546 17.0352941,6.99831933 C17.0386555,6.92773109 17.0218487,6.83697479 16.9008403,6.71596639 C16.7798319,6.59495798 16.6789916,6.57478992 16.6016807,6.57815126 Z M9.74789916,5.0487395 C9.56638655,5.0487395 9.48907563,5.10588235 9.43529412,5.15966387 C9.40504202,5.18991597 9.31764706,5.28067227 9.31764706,5.55966387 C9.31764706,5.83865546 9.40504202,5.92941176 9.43529412,5.95966387 C9.48571429,6.01344538 9.55966387,6.06722689 9.73109244,6.07058824 L9.7512605,6.07058824 C9.92941176,6.07058824 10.0067227,6.01344538 10.0605042,5.95966387 C10.0907563,5.92941176 10.1781513,5.83865546 10.1781513,5.55966387 C10.1781513,5.28067227 10.0907563,5.18991597 10.0605042,5.15966387 C10.0067227,5.10588235 9.92941176,5.0487395 9.74789916,5.0487395 Z" id="Fibra_2Regular"></path>
        </g>
    </g>
</svg>

<svg width="24" height="24" viewBox="0 0 24 24" xmlns="http://www.w3.org/2000/svg"><path d="M11.815 0c3.748 0 6.669.982 8.676 2.914 2.084 2.007 3.14 5.002 3.14 8.901 0 3.9-1.056 6.89-3.14 8.901-2.007 1.933-4.928 2.914-8.676 2.914-2.964 0-5.411-.614-7.298-1.827a.672.672 0 01-.371-.25 9.019 9.019 0 01-1.007-.837C1.055 18.706 0 15.711 0 11.816c0-3.897 1.055-6.892 3.14-8.902C5.145.982 8.066 0 11.814 0zm0 1.345c-3.388 0-5.993.853-7.741 2.537-1.812 1.745-2.73 4.414-2.73 7.933 0 2.286.388 4.211 1.155 5.76l3.45-3.404a.67.67 0 01.952.007l.232.235c.81-1.61 1.65-3.986 1.879-7.142a1.623 1.623 0 01-.548-.38c-.326-.34-.49-.787-.49-1.331 0-.545.164-.989.49-1.331.326-.34.773-.525 1.28-.525.508 0 .952.182 1.281.525.33.342.491.79.491 1.33 0 .542-.165.989-.49 1.332a1.632 1.632 0 01-.673.427c-.182 2.554-.74 4.642-1.382 6.258l5.832-5.76a1.625 1.625 0 01-.137-.713c.013-.471.215-.901.605-1.285.39-.383.82-.581 1.29-.591.478-.014.921.168 1.281.524.36.357.548.8.534 1.278-.013.47-.215.9-.605 1.284-.39.383-.82.578-1.29.591a1.687 1.687 0 01-.726-.141l-5.721 5.647c1.596-.612 3.627-1.143 6.094-1.318.087-.255.232-.487.427-.672.34-.326.786-.49 1.33-.49.545 0 .992.167 1.332.494.34.326.524.773.524 1.28 0 .508-.181.951-.524 1.284-.343.333-.787.491-1.331.491-.545 0-.989-.168-1.331-.49a1.672 1.672 0 01-.38-.549c-3.167.229-5.546 1.076-7.16 1.89l.269.272a.67.67 0 01-.007.95l-3.476 3.446c1.59.856 3.604 1.288 6.014 1.288 3.388 0 5.993-.854 7.741-2.538 1.812-1.745 2.73-4.414 2.73-7.933 0-3.52-.918-6.185-2.73-7.933-1.748-1.684-4.353-2.537-7.74-2.537zM6.417 15.603L3.215 18.76a7.52 7.52 0 001.431 1.486l3.22-3.177-.723-.733-.326-.33-.4-.403zm11.482-2.326c-.275 0-.37.088-.4.118-.054.054-.11.131-.11.31v.013c-.004.003-.004.006 0 .006.003.172.056.246.11.296.03.03.125.118.4.118.276 0 .37-.088.4-.118.054-.054.111-.13.111-.312s-.057-.26-.11-.313c-.031-.03-.125-.118-.4-.118zm-1.297-6.699c-.044 0-.178.004-.38.205-.202.202-.202.323-.205.363-.004.067.01.158.13.28.132.127.226.144.303.14.044 0 .179-.003.38-.205.202-.201.202-.322.205-.363.004-.07-.013-.161-.134-.282-.121-.121-.222-.141-.3-.138zm-6.854-1.53c-.182 0-.259.058-.313.112-.03.03-.117.12-.117.4 0 .279.087.37.117.4.05.053.125.107.296.11h.02c.178 0 .256-.057.31-.11.03-.03.117-.121.117-.4 0-.28-.087-.37-.117-.4-.054-.054-.132-.111-.313-.111z" fill="#5CB615" fill-rule="nonzero"/></svg>
